tools/download-figma-icons/icons/outlined-large/toothbrush.svg

<svg width="64" height="67" viewBox="0 0 64 67" fill="none" xmlns="http://www.w3.org/2000/svg">
<path fill-rule="evenodd" clip-rule="evenodd" d="M62.9684 14.7124C62.1885 13.7524 61.0886 13.1524 59.8587 13.0224C58.6289 12.8924 57.429 13.2524 56.4792 14.0224L55.9592 14.4424L52.0997 10.1724C52.5496 10.0724 52.9996 10.0124 53.4595 10.0124H53.5095C54.1094 10.0124 54.6594 9.66241 54.8993 9.11241C55.1393 8.56241 55.0293 7.92241 54.6194 7.48241L51.4298 4.09241C50.0699 2.68241 48.3101 1.95241 46.3904 2.00241C43.4607 2.10241 40.4011 4.07241 37.3015 7.84241C36.1216 9.27241 32.2621 12.9824 28.5626 12.9824H28.5026C27.9026 12.9824 27.3627 13.3324 27.1227 13.8824C26.8828 14.4324 26.9927 15.0724 27.4027 15.5124L30.5923 18.9024C31.8722 20.2624 33.5619 21.0024 35.3817 21.0024H35.6117C36.0716 20.9824 36.5316 20.9124 36.9915 20.8024L41.611 25.9124L1.71582 57.7824C0.755941 58.5624 0.156014 59.6624 0.0260299 60.8924C-0.103954 62.1224 0.256002 63.3224 1.03591 64.2824C1.81581 65.2424 2.91568 65.8424 4.14553 65.9724C4.30551 65.9924 4.47549 66.0024 4.63547 66.0024C5.69534 66.0024 6.70522 65.6424 7.52512 64.9724L62.2884 21.2224C64.2682 19.6124 64.5782 16.7024 62.9684 14.7224V14.7124ZM53.5995 16.3224L51.9597 17.6324L47.4003 12.5924C47.9302 12.1724 48.5201 11.7624 49.14 11.3924L53.5995 16.3224ZM49.6 19.5024L47.946 20.8278L43.7707 16.2124C44.0807 15.8724 44.3906 15.5324 44.6906 15.1524C44.6906 15.1424 44.8706 14.9324 45.1805 14.6124L49.6 19.5024ZM35.5117 17.9924C34.1919 18.0224 33.302 17.3924 32.782 16.8424L31.5222 15.5124C35.5217 14.2524 38.7013 10.8724 39.5912 9.73241L39.6112 9.75241C42.7608 5.91241 45.0905 5.05241 46.4804 5.00241C47.8202 4.95241 48.6901 5.60241 49.21 6.15241L50.4699 7.49241C46.0697 8.89396 42.6877 12.8699 42.3855 13.2253L42.3709 13.2424C39.2213 17.0824 36.8915 17.9424 35.5017 17.9924H35.5117ZM39.9112 19.5524C40.4811 19.2024 41.051 18.7824 41.621 18.3024L45.6005 22.7024L43.9507 24.0224L39.9112 19.5524ZM60.3987 18.8724L5.65534 62.6424C5.31539 62.9124 4.89544 63.0424 4.46549 62.9924C4.03554 62.9524 3.64559 62.7324 3.37562 62.4024C3.10565 62.0624 2.97567 61.6424 3.02566 61.2124C3.06566 60.7824 3.28563 60.3924 3.60559 60.1224L58.3589 16.3624C58.6489 16.1224 59.0088 16.0024 59.3788 16.0024H59.5488C59.9787 16.0424 60.3687 16.2624 60.6386 16.5924C61.1986 17.2924 61.0986 18.3124 60.4087 18.8724H60.3987ZM22.5034 11.002C24.9831 11.002 27.0028 8.98195 27.0028 6.50195C27.0028 4.02195 24.9831 2.00195 22.5034 2.00195C20.0237 2.00195 18.0039 4.02195 18.0039 6.50195C18.0039 8.98195 20.0237 11.002 22.5034 11.002ZM22.5034 5.00195C23.3333 5.00195 24.0032 5.67195 24.0032 6.50195C24.0032 7.33195 23.3333 8.00195 22.5034 8.00195C21.6735 8.00195 21.0035 7.33195 21.0035 6.50195C21.0035 5.67195 21.6735 5.00195 22.5034 5.00195ZM24.0032 22.502C24.0032 26.082 21.0835 29.002 17.504 29.002C13.9244 29.002 11.0048 26.082 11.0048 22.502C11.0048 18.922 13.9244 16.002 17.504 16.002C21.0835 16.002 24.0032 18.922 24.0032 22.502ZM21.0035 22.502C21.0035 20.572 19.4337 19.002 17.504 19.002C15.5742 19.002 14.0044 20.572 14.0044 22.502C14.0044 24.432 15.5742 26.002 17.504 26.002C19.4337 26.002 21.0035 24.432 21.0035 22.502Z" fill="black"/>
</svg>

<svg xmlns="http://www.w3.org/2000/svg" width="64" height="67" fill="none" viewBox="0 0 64 67"><path fill="currentColor" fill-rule="evenodd" d="M62.968 14.712a4.6 4.6 0 0 0-3.11-1.69 4.57 4.57 0 0 0-3.379 1l-.52.42-3.86-4.27c.45-.1.9-.16 1.36-.16h.05c.6 0 1.15-.35 1.39-.9s.13-1.19-.28-1.63l-3.19-3.39c-1.36-1.41-3.119-2.14-5.039-2.09-2.93.1-5.989 2.07-9.089 5.84-1.18 1.43-5.039 5.14-8.738 5.14h-.06c-.6 0-1.14.35-1.38.9s-.13 1.19.28 1.63l3.19 3.39c1.28 1.36 2.969 2.1 4.789 2.1h.23c.46-.02.92-.09 1.38-.2l4.619 5.11-39.895 31.87a4.6 4.6 0 0 0-1.69 3.11c-.13 1.23.23 2.43 1.01 3.39a4.6 4.6 0 0 0 3.11 1.69 4.54 4.54 0 0 0 3.38-1l54.762-43.75c1.98-1.61 2.29-4.52.68-6.5zm-9.369 1.61-1.64 1.31-4.559-5.04c.53-.42 1.12-.83 1.74-1.2zm-3.999 3.18-1.654 1.326-4.175-4.616c.31-.34.62-.68.92-1.06 0-.01.18-.22.49-.54zm-14.088-1.51c-1.32.03-2.21-.6-2.73-1.15l-1.26-1.33c4-1.26 7.18-4.64 8.07-5.78l.02.02c3.149-3.84 5.478-4.7 6.868-4.75 1.34-.05 2.21.6 2.73 1.15l1.26 1.34c-4.4 1.402-7.782 5.378-8.084 5.733l-.015.017c-3.15 3.84-5.48 4.7-6.87 4.75zm4.4 1.56c.57-.35 1.139-.77 1.709-1.25l3.98 4.4-1.65 1.32zm20.487-.68L5.655 62.642c-.34.27-.76.4-1.19.35-.43-.04-.82-.26-1.09-.59-.27-.34-.4-.76-.35-1.19.04-.43.26-.82.58-1.09l54.754-43.76c.29-.24.65-.36 1.02-.36h.17c.43.04.82.26 1.09.59.56.7.46 1.72-.23 2.28zm-37.896-7.87c2.48 0 4.5-2.02 4.5-4.5s-2.02-4.5-4.5-4.5-4.5 2.02-4.5 4.5 2.02 4.5 4.5 4.5m0-6c.83 0 1.5.67 1.5 1.5s-.67 1.5-1.5 1.5-1.5-.67-1.5-1.5.67-1.5 1.5-1.5m1.5 17.5c0 3.58-2.92 6.5-6.499 6.5-3.58 0-6.5-2.92-6.5-6.5s2.92-6.5 6.5-6.5 6.5 2.92 6.5 6.5m-3 0c0-1.93-1.57-3.5-3.499-3.5s-3.5 1.57-3.5 3.5 1.57 3.5 3.5 3.5 3.5-1.57 3.5-3.5" clip-rule="evenodd"/></svg>
